X:1
T:O sacrum convivium
T:O sacrum convivium
T:Giovanni Girolamo Kapsperger
T:Source : Libro primo di mottetti passeggiati a una voce---Roma---1612. Racolta del Sig.Francesco de Nobili Editor : André Vierendeels (21/10/15).
T:Notes : Original clefs : C1, F4 Editorial accidentals above the staff Figures in BC are notated in original Ms Note values have been halved in 3-beat measures
C:Giovanni Girolamo Kapsperger
%%score 1 2
L:1/8
Q:1/4=78
M:4/4
K:C
V:1 treble nm="Soprano" snm="S"
V:2 bass nm="BC" snm="BC"
V:1
 G8 | G8 | F6 E2 | D6 D2 | C4 z/ C/D/E/ F/G/A/B/ | c2- c/B/c/d/ c2 _B2 | %6
w: O|sa-|crum con-|vi- vi-|um, O _ _ _ _ _ _|sa- * * * * * crum|
 A/_B/c/A/ B/A/G/F/ E/4D/4E/4F/4G/4A/4B/4c/4 F2 | G6 G2 | F6 A2 | B/A/B/c/ B2 ^c4- | cA d4 ^c2 | %11
w: con- * * * * * * * * * * * * * * * *|vi- vi-|um, in|quo _ _ _ _ Chri-|* stus su- mi-|
 d2 D/E/F/G/ A/B/c/B/ c/B/B/4B/4A/4B/4 | c6 c2 | B6 c/B/A/G/ | A6 A2 | ^G4 z/ E/F/G/ A/B/c/d/ | %16
w: tur: re- * * * * * * * * * * * * *|co- li-|tur me- * * *|mo- ri-|a pas- * * * * * *|
 e6 B2 | B6 B2 | B6 c2 | A8 |[M:3/4] c4 B2 | A4 G2 | F4 F2 | E6 | B4 c2 | d4 e2 | f3 f e2 | d4 e2 | %28
w: * si-|o- nis|e- *|ius,|mens in-|ple- tur|gra- ti-|a,|et fu-|tu- rae|glo- ri- ae|no- bis|
 c4 d2 |[M:4/4] d8 | c8 |[M:3/4] G4 ^G2 | A4 E2 | G4 F2 |[M:4/4] E8 | D8 |[M:3/4] d4 d2 | c4 c2 | %38
w: pi- gnus|da-|tur.|Al- le|lu- ia,|Al- le-|lu-|ia,|Mens in-|ple- tus|
[M:4/4] B6 A2 | G4 c3 c | B2 B2 A3 B/c/ | F2 G2 A/G/A/G/ G/G/F | G6 C/D/E/F/ | %43
w: gra- ti-|a et fu-|tu- rae glo- * *|* * * * * * * * i-|ae no- * * *|
 G/C/D/E/ F/G/A/B/ c/G/A/B/ c2- | c2 B2 A4- | A2 B2 B3 c/d/ | ^G3 A/B/ E4- | %47
w: |* bis pi-|* gnus da- * *||
 E^F/4^G/4A/4B/4 c/d/e/D/ E4 | E4 A4 | B4 ^c4 | d4 B/cd/ e2- | e2 d/c/B/A/ B4 | A4 ^F4 | G4 A4 | %54
w: |tur. Al-|le- lu-|ia, Al- * * le-|* * * * * lu-|ia, Al-|le- lu-|
 B4 A/Bc/ d2- | d2 c/B/A/G/ A4 | G4 c4- | c2 B/A/G/F/ E/F/G/C/ D/E/^F/G/ | %58
w: ia, Al- * * le-|* * * * * lu-|ia, Al-|* le- * * * * * * * * * * *|
 A/B/c/d/ e/G/A/B/ c/B/c/B/ c/B/B/B/4A/4 | G>A B/c/B A4 | !fermata!G8 |] %61
w: |* * * * * lu-|ia.|
V:2
 G,8 | C4 B,4 | A,4 G,4 | G,8 | C,8 | C,2 F,2 E,2 D,2 | C,8 | C,8 | F,,4 F,4 | G,4 A,4 | %10
 ^F,3 G, A,4 | D,8 | A,,4 E,4- | E,4 E,4 | D,8 | E,8 | ^C,2 D,2 E,4- | E,4 D,4 | E,8 | A,,8 | %20
[M:3/4] A,4 E,2 | F,4 E,2 | D,4 D,2 | C,6 | G,,4 A,,2 | B,,4 C,2 | D,3 D, C,2 | G,4 E,2 | F,4 E,2 | %29
[M:4/4] G,8 | C,8 |[M:3/4] C4 B,2 | A,4 C2 | G,4 G,2 |[M:4/4] A,8 | D,8 |[M:3/4] G,,4 D,2 | %37
 E,4 ^F,2 |[M:4/4] G,8 | D,4 A,,4 | E,4 F,4 | F,8 | C,8 | C,4 A,,4 | E,4 F,4 | D,4 E,4 | E,8- | %47
 E,4 E,4 |"^4  3#" A,,4 A,4 | G,2 ^F,2 E,4 | D,6 ^C,2 | D,4 E,4 | A,,4 D,4 | C,2 B,,2 A,,4 | %54
 G,,6 B,,2 | C,4 D,4 | G,,4 A,,4 | E,8 | E,8 | E,2 C,2 D,4 | !fermata!G,,8 |] %61

